icons/svg/topo/topo_alpine_hut.svg

<?xml version="1.0" encoding="UTF-8" standalone="no"?>
<!-- Created with Inkscape (http://www.inkscape.org/) -->

<svg
   xmlns:dc="http://purl.org/dc/elements/1.1/"
   xmlns:cc="http://creativecommons.org/ns#"
   xmlns:rdf="http://www.w3.org/1999/02/22-rdf-syntax-ns#"
   xmlns:svg="http://www.w3.org/2000/svg"
   xmlns="http://www.w3.org/2000/svg"
   xmlns:sodipodi="http://sodipodi.sourceforge.net/DTD/sodipodi-0.dtd"
   xmlns:inkscape="http://www.inkscape.org/namespaces/inkscape"
   version="1.0"
   width="580"
   height="580"
   id="svg2"
   sodipodi:version="0.32"
   inkscape:version="0.91 r"
   sodipodi:docname="topo_alpine_hut.svg"
   inkscape:output_extension="org.inkscape.output.svg.inkscape">
  <metadata
     id="metadata2975">
    <rdf:RDF>
      <cc:Work
         rdf:about="">
        <dc:format>image/svg+xml</dc:format>
        <dc:type
           rdf:resource="http://purl.org/dc/dcmitype/StillImage" />
        <cc:license
           rdf:resource="http://web.resource.org/cc/PublicDomain" />
        <dc:language>en</dc:language>
      </cc:Work>
    </rdf:RDF>
  </metadata>
  <sodipodi:namedview
     inkscape:window-height="1051"
     inkscape:window-width="1920"
     inkscape:pageshadow="2"
     inkscape:pageopacity="0.0"
     guidetolerance="10.0"
     gridtolerance="10.0"
     objecttolerance="10.0"
     borderopacity="1.0"
     bordercolor="#666666"
     pagecolor="#ffffff"
     id="base"
     inkscape:zoom="0.92167712"
     inkscape:cx="208.0596"
     inkscape:cy="282.28544"
     inkscape:window-x="0"
     inkscape:window-y="0"
     inkscape:current-layer="svg2"
     showgrid="false"
     inkscape:window-maximized="1" />
  <defs
     id="defs4">
    <inkscape:perspective
       sodipodi:type="inkscape:persp3d"
       inkscape:vp_x="0 : 290 : 1"
       inkscape:vp_y="0 : 1000 : 0"
       inkscape:vp_z="580 : 290 : 1"
       inkscape:persp3d-origin="290 : 193.33333 : 1"
       id="perspective2441" />
    <inkscape:perspective
       id="perspective3452"
       inkscape:persp3d-origin="30 : 20 : 1"
       inkscape:vp_z="60 : 30 : 1"
       inkscape:vp_y="0 : 1000 : 0"
       inkscape:vp_x="0 : 30 : 1"
       sodipodi:type="inkscape:persp3d" />
    <symbol
       viewBox="244.5 110 489 219.9"
       id="symbol-university">
      <path
         id="path4460"
         d="M79,43l57,119c0,0,21-96,104-96s124,106,124,106l43-133l82-17L0,17L79,43z" />
      <path
         id="path4462"
         d="M94,176l-21,39"
         stroke-width="20"
         stroke="#000000"
         fill="none" />
      <path
         id="path4464"
         d="M300,19c0,10.5-22.6,19-50.5,19S199,29.5,199,19s22.6-19,50.5-19S300,8.5,300,19z" />
      <path
         id="path4466"
         d="M112,216l-16-38L64,88c0,0-9-8-4-35s16-24,16-24"
         stroke-width="20"
         stroke="#000000"
         fill="none" />
    </symbol>
    <inkscape:perspective
       id="perspective4471"
       inkscape:persp3d-origin="372.04724 : 350.78739 : 1"
       inkscape:vp_z="744.09448 : 526.18109 : 1"
       inkscape:vp_y="0 : 1000 : 0"
       inkscape:vp_x="0 : 526.18109 : 1"
       sodipodi:type="inkscape:persp3d" />
    <inkscape:perspective
       id="perspective4668"
       inkscape:persp3d-origin="6 : 4 : 1"
       inkscape:vp_z="12 : 6 : 1"
       inkscape:vp_y="0 : 1000 : 0"
       inkscape:vp_x="0 : 6 : 1"
       sodipodi:type="inkscape:persp3d" />
  </defs>
  <g
     id="g1327">
    <path
       d="M 66.275,1.768 C 24.94,1.768 1.704,23.139 1.704,66.804 L 1.704,516.927 C 1.704,557.771 22.599,579.156 63.896,579.156 L 515.92,579.156 C 557.227,579.156 578.149,558.841 578.149,516.927 L 578.149,66.804 C 578.149,24.203 557.227,1.768 514.628,1.768 C 514.624,1.768 66.133,1.625 66.275,1.768 z"
       style="fill:#111111;stroke:#eeeeee;stroke-width:3.40799999"
       id="path1329" />
  </g>
  <path
     style="font-style:normal;font-variant:normal;font-weight:normal;font-stretch:normal;font-size:40px;line-height:125%;font-family:NPSPICT3;-inkscape-font-specification:NPSPICT3;text-align:start;writing-mode:lr-tb;text-anchor:start;fill:#ffffff;fill-opacity:1;stroke:none;stroke-width:1px;stroke-linecap:butt;stroke-linejoin:miter;stroke-opacity:1"
     d="m 292.21832,443.73328 9.61306,78.94539 c 1.1572,8.61896 6.33029,13.64301 15.51932,15.07216 6.32152,0.86805 11.85191,-0.925 16.5912,-5.37915 4.73887,-4.45411 6.67879,-9.84202 5.81974,-16.16377 l -11.34913,-89.70369 c -1.1488,-6.61095 -5.15576,-10.61165 -8.98075,-15.94526 l -29.4218,-41.02622 28.44769,-49.55659 14.21727,18.09709 c 1.14841,1.72746 2.87569,3.02074 5.18186,3.87985 l 31.95509,15.51931 c 1.42894,0.57006 2.71783,0.855 3.86669,0.85487 4.02424,1.3e-4 7.47442,-1.58029 10.3506,-4.74127 2.87561,-3.16071 4.31356,-6.75339 4.31384,-10.77805 -2.8e-4,-7.1808 -3.45047,-11.91988 -10.35062,-14.21727 l -24.62943,-13.78325 -35.33932,-42.67812 c -4.88393,-5.74279 -11.77995,-9.33327 -20.68803,-10.77145 -15.51071,-2.29697 -27.14578,3.16109 -34.90532,16.37419 l -39.21914,67.66684 c -2.58664,4.31401 -3.73525,9.62738 -3.44583,15.94018 l 1.28891,85.76394 -29.73658,63.78702 c -1.14866,2.58654 -1.86325,4.73907 -2.14378,6.45762 -0.86808,5.46241 0.27834,10.27602 3.43924,14.44085 3.1608,4.16474 7.47246,6.68115 12.93495,7.54922 9.18877,1.42913 15.65075,-1.73172 19.386,-9.48257 l 32.76154,-69.82376 c 1.14846,-2.58651 1.72278,-5.31335 1.72289,-8.18052 l -0.43401,-53.01556 33.23385,44.89797 z m 22.79349,-186.25525 c 7.7595,2.4e-4 14.51082,-2.80112 20.25404,-8.40411 5.74283,-5.60247 8.61434,-12.42396 8.61454,-20.46445 -2e-4,-7.75938 -2.87171,-14.5129 -8.61454,-20.2606 -5.74322,-5.74711 -12.49454,-8.6208 -20.25404,-8.6211 -8.04915,3e-4 -14.87502,2.87399 -20.47757,8.6211 -5.6029,5.7477 -8.40427,12.50122 -8.40414,20.2606 -1.3e-4,8.04049 2.80124,14.86198 8.40414,20.46445 5.60255,5.60299 12.42842,8.40435 20.47757,8.40411 l 0,0 z m -100.84921,78.8723 43.09898,-74.12445 c 2.87577,-4.88351 1.87183,-8.61866 -3.01181,-11.20545 l -13.79642,-8.1937 c -4.88385,-2.86686 -8.61901,-1.85855 -11.20547,3.02497 l -43.09896,74.12445 c -2.86716,4.88394 -1.85886,8.61909 3.02494,11.20548 l 13.78326,8.18051 c 4.88368,2.87604 8.61885,1.87213 11.20548,-3.01181 l 0,0 z"
     id="flowRoot3192"
     sodipodi:nodetypes="cccsccscccccsssccccccccccscccccccsscsssscccccccccccc"
     inkscape:connector-curvature="0" />
  <path
     style="fill:none;fill-rule:evenodd;stroke:#ffffff;stroke-width:11.92976761;stroke-linecap:round;stroke-linejoin:miter;stroke-miterlimit:4;stroke-dasharray:none;stroke-opacity:1"
     d="m 372.17675,355.31635 0,167.23184"
     id="path2770"
     sodipodi:nodetypes="cc"
     inkscape:connector-curvature="0" />
  <g
     id="g3548"
     transform="matrix(0.92715522,0,0,0.92715522,21.001129,-65.880732)">
    <path
       style="display:inline;fill:#ffffff;fill-opacity:1;fill-rule:evenodd;stroke:#ffffff;stroke-width:22.94434357;stroke-linecap:round;stroke-linejoin:round;stroke-miterlimit:4;stroke-dasharray:none;stroke-opacity:1;marker-mid:none"
       d="M 31.672085,267.24336 288.29972,130.37529 544.92735,267.24336 527.74447,284.74081 441.94873,250.13486 288.20798,231.63196 134.11608,249.86754 48.769323,284.35596 31.672085,267.24336 Z"
       id="path7057"
       sodipodi:nodetypes="ccccccccc"
       inkscape:connector-curvature="0" />
    <rect
       style="display:inline;fill:#ffffff;fill-opacity:1;stroke:#ffffff;stroke-width:25.16522408;stroke-linecap:round;stroke-linejoin:round;stroke-miterlimit:4;stroke-dasharray:none;stroke-opacity:1"
       id="rect7061"
       width="31.996138"
       height="308.13077"
       x="456.80032"
       y="266.5777"
       ry="0" />
    <rect
       ry="0"
       y="266.5777"
       x="84.800323"
       height="308.13077"
       width="31.996138"
       id="rect3546"
       style="display:inline;fill:#ffffff;fill-opacity:1;stroke:#ffffff;stroke-width:25.16522408;stroke-linecap:round;stroke-linejoin:round;stroke-miterlimit:4;stroke-dasharray:none;stroke-opacity:1" />
  </g>
</svg>

<svg width="580" height="580" viewBox="0 0 580 580" fill="none" xmlns="http://www.w3.org/2000/svg">
<g clip-path="url(#clip0)">
<path d="M66.2751 1.7679C24.9401 1.7679 1.7041 23.1389 1.7041 66.8039V516.927C1.7041 557.771 22.5991 579.156 63.8961 579.156H515.92C557.227 579.156 578.149 558.841 578.149 516.927V66.8039C578.149 24.2029 557.227 1.7679 514.628 1.7679C514.624 1.7679 66.1331 1.6249 66.2751 1.7679Z" fill="#111111" stroke="#EEEEEE" stroke-width="3.408"/>
<path d="M292.218 443.733L301.831 522.679C302.989 531.298 308.162 536.322 317.351 537.751C323.672 538.619 329.203 536.826 333.942 532.372C338.681 527.918 340.621 522.53 339.762 516.208L328.413 426.504C327.264 419.893 323.257 415.893 319.432 410.559L290.01 369.533L318.458 319.976L332.675 338.073C333.823 339.801 335.551 341.094 337.857 341.953L369.812 357.472C371.241 358.042 372.53 358.327 373.679 358.327C377.703 358.327 381.153 356.747 384.029 353.586C386.905 350.425 388.343 346.833 388.343 342.808C388.343 335.627 384.893 330.888 377.992 328.591L353.363 314.807L318.024 272.129C313.14 266.387 306.244 262.796 297.336 261.358C281.825 259.061 270.19 264.519 262.43 277.732L223.211 345.399C220.625 349.713 219.476 355.026 219.765 361.339L221.054 447.103L191.318 510.89C190.169 513.477 189.454 515.629 189.174 517.348C188.306 522.81 189.452 527.624 192.613 531.789C195.774 535.953 200.086 538.47 205.548 539.338C214.737 540.767 221.199 537.606 224.934 529.855L257.696 460.031C258.844 457.445 259.418 454.718 259.419 451.851L258.985 398.835L292.218 443.733V443.733ZM315.012 257.478C322.771 257.478 329.523 254.677 335.266 249.074C341.009 243.471 343.88 236.65 343.88 228.609C343.88 220.85 341.009 214.097 335.266 208.349C329.523 202.602 322.771 199.728 315.012 199.728C306.963 199.728 300.137 202.602 294.534 208.349C288.931 214.097 286.13 220.85 286.13 228.609C286.13 236.65 288.931 243.471 294.534 249.074C300.137 254.677 306.963 257.478 315.012 257.478ZM214.163 336.35L257.262 262.226C260.137 257.342 259.133 253.607 254.25 251.02L240.453 242.827C235.57 239.96 231.834 240.968 229.248 245.852L186.149 319.976C183.282 324.86 184.29 328.595 189.174 331.182L202.957 339.362C207.841 342.238 211.576 341.234 214.163 336.35Z" fill="white"/>
<path d="M372.177 355.316V522.548" stroke="white" stroke-width="11.9298" stroke-linecap="round"/>
<path fill-rule="evenodd" clip-rule="evenodd" d="M50.366 181.895L288.3 54.9973L526.233 181.895L510.302 198.118L430.756 166.033L288.215 148.878L145.347 165.785L66.2178 197.761L50.366 181.895Z" fill="white" stroke="white" stroke-width="21.273" stroke-linecap="round" stroke-linejoin="round"/>
<path d="M474.191 181.278H444.526V466.963H474.191V181.278Z" fill="white" stroke="white" stroke-width="23.3321" stroke-linecap="round" stroke-linejoin="round"/>
<path d="M129.289 181.278H99.624V466.963H129.289V181.278Z" fill="white" stroke="white" stroke-width="23.3321" stroke-linecap="round" stroke-linejoin="round"/>
</g>
<defs>
<clipPath id="clip0">
<path d="M0 0H580V580H0V0Z" fill="white"/>
</clipPath>
</defs>
</svg>
